icons/restaurant-line.svg

<svg viewBox="0 0 24 24" fill="currentColor" xmlns="http://www.w3.org/2000/svg"><path d="M21 2V22H19V15H15V8C15 4.68629 17.6863 2 21 2ZM19 4.53C18.17 5 17 6.17 17 8V13H19V4.53ZM9 13.9V22H7V13.9C4.71776 13.4367 3 11.419 3 9V3H5V10H7V3H9V10H11V3H13V9C13 11.419 11.2822 13.4367 9 13.9Z"/></svg>

<svg xmlns="http://www.w3.org/2000/svg" viewBox="0 0 24 24">
    <g>
        <path fill="none" d="M0 0h24v24H0z"/>
        <path d="M21 2v20h-2v-7h-4V8a6 6 0 0 1 6-6zm-2 2.53C18.17 5 17 6.17 17 8v5h2V4.53zM9 13.9V22H7v-8.1A5.002 5.002 0 0 1 3 9V3h2v7h2V3h2v7h2V3h2v6a5.002 5.002 0 0 1-4 4.9z"/>
    </g>
</svg>
